X: 483
%
U:~=!turn!
T: Mrs. MacInroy of Lude
C:Joseph Lowe
O:Scotland
B:Keith Norman MacDonald : "The Skye collection of the best reels & strathspeys extant" : 1887
Z:Ralph Palmer
R:Reel
M:C
L:1/8
K:B Aeolian
B | (FB)Bc {/e}(dc)df | eAcA aAcA | FBdc Bdfa | {/^g}b>fec B/B/B B :| ^a | (bB)fB (bB)fd | (cA)eA (aA)ec |
(bB)fB (bB)fd | c>Aec B/B/B (B^a) | (bB)fB (bB)fd | (cA)eA (aA)ec | bBdc Bdfa | a>fec B/B/B B |]


